!! 00000] TT[00
!! NN
!!!OTL: Feng shou ge
!!!ARE: Jilin, Yanbian
!! Ethnic Group: Chaoxian
!! III, 166
!!!SCT: C0285
!!!YEM: Copyright 1995, estate of Helmut Schaffrath.
**kern
*ICvox
*Ivox
*M6/8
*k[f#]
*G:
{4d
8g
8.a
16g
8b
=1
4d
8g
4.a
=2
4b
8b
8.a
16g
8b
=3
8.e
16g
8e
8d
16e
16d
16B
16A}
=4
{8d
[4d
4.d]
=5
8g
8.b
16a
8g
16a
16g
16e
16d
=6
8g
8g
8g
8a
8dd
16b
16a
=7
8g
16a
16g
16e
16d
4.g}
=8
{4d
8g
8.a
16g
8b
=9
4d
8g
4.a
=10
4b
8b
8.a
16g
8b
=11
8.e
16g
8e
8d
16e
16d
16B
16A}
=12
{8d
[4d
4.d]
=13
8g
8.b
16a
8g
16a
16g
16e
16d
=14
8g
8g
8g
8a
8dd
16b
16a
=15
8g
16a
16g
16e
16d
4.g}
==
!!!AGN: Wuge. Chang fengshou
!! Stil wird ein wenig von Japan beeinflusst.
!!!ONB: ESAC (Essen Associative Code) Database: CHINA
!!!AMT: compound duple
!!!AIN: vox
!!!EED: Helmut Schaffrath
!!!EEV: 1.0
*-
